svg/u1f9aa.svg

<svg viewBox="0 0 128 128" xmlns="http://www.w3.org/2000/svg">
  <path d="M119.32,9.32c-9.89-11.8-43.55,3.57-50.87,7.13S45.36,28.09,40.11,32.41c-4,3.29-6.01,7.51-8.63,9.01 s-7.13,3.19-9.95,5.63c-2.82,2.44-2.44,6.38-4.88,8.82c-2.44,2.44-13.92,7.51-12.76,21.4c0.94,11.26,9.2,12.01,12.01,17.08 s3.94,16.33,12.76,22.15c8.36,5.51,15.58,2.63,23.46,3s6.95,4.88,13.33,4.32c7.72-0.68,15.2-9.39,16.89-9.95 c1.69-0.56,7.15,1.35,10.7-0.75c9.2-5.44,9.01-12.58,11.26-18.58c2.25-6.01,9.76-7.32,11.07-14.27c1.31-6.95-0.94-17.46,0.38-24.59 S130.02,22.09,119.32,9.32z" fill="#87716B"/>
  <path d="M27.16,51.75c0,0-6.76,4.32-9.95,7.7c-3.19,3.38-10.51,8.26-9.2,16.89s10.14,10.7,13.14,16.89 s4.5,19.33,14.64,22.15s8.17-7.7,15.39-7.51c9.01,0.23,6.19,12.2,14.64,11.83s8.26-10.32,14.27-10.89 c6.01-0.56,8.15,3.23,12.95-0.19c7.13-5.07,4.62-13.58,6.71-17.32c2.86-5.11-4.08-30.74-4.08-30.74l-43.5-17.41L27.16,51.75z" fill="#9EA5A6"/>
  <path d="M64.51,37.29c0,0-32.85,4.13-39.61,12.95S10.63,68.76,11.95,76.71c1.69,10.14,8.63,9.2,12.95,15.2 s6.95,17.64,13.51,18.96c6.57,1.31,6.57-7.51,13.89-7.51s7.88,12.01,13.51,11.83s6.57-6.38,11.45-9.01 c4.88-2.63,9.76,3.57,15.2-1.13c5.44-4.69,3.78-10.66,6.43-14.73c3.66-5.63-0.42-40.12-0.42-40.12L78.02,33.16L64.51,37.29z" fill="#CCCCCC"/>
  <path d="M49.49,48.93c0,0-5.44,0.75-9.01,1.31c-3.57,0.56-8.82,1.69-12.76,5.44 c-3.94,3.75-9.57,12.58-9.39,13.7s17.46,3.57,17.46,3.57L49.49,48.93z" fill="#F3F1F6"/>
  <path d="M16.69,79.06c0,0,9.71,0,10.56,0.7c0.84,0.7,3.24,5.75,6.76,9.57c4.79,5.21,11.4,6.76,11.54,7.74 c0.14,0.99-3.8,10.28-6.34,9.71s-3.94-6.76-10-14.08C23.17,85.39,18.66,84.69,16.69,79.06z" fill="#F3F1F6"/>
  <path d="M57.8,97.92c-0.49,0.28,0.63,4.08,1.97,8.31c0.57,1.8,3.8,6.83,7.04,5.49 c2.53-1.05,2.46-5.07,1.97-8.59c-0.6-4.27-1.76-8.02-2.25-7.81c-0.8,0.34-2.18,0.77-4.43,1.48C60.03,97.44,58.48,97.53,57.8,97.92z" fill="#F3F1F6"/>
  <path d="M72.72,91.02c-0.43,0.34,4.51,6.2,5.42,7.39c1.34,1.76,2.96,3.59,6.48,3.73 c3.52,0.14,6.12-0.99,6.12-2.25c0-1.27-3.56-4.92-6.34-9.15c-0.82-1.25-4.22-5.98-4.5-5.98c-0.28,0-1.8,1.92-3.03,2.96 C74.55,89.69,73.36,90.53,72.72,91.02z" fill="#F3F1F6"/>
  <path d="M86.38,78.63c-0.58,0.84,12.11,8.59,13.37,8.45c0.62-0.07,0.66-6.62,0.56-13.09 c-0.07-4.72-0.55-13.39-0.7-12.46c-0.14,0.84-2.96,5.56-5.84,9.15C90.75,74.43,87.01,77.72,86.38,78.63z" fill="#F3F1F6"/>
  <path d="M108.9,29.64c0,0-0.99,14.5-8.45,24.78c-7.46,10.28-27.17,36.46-50.12,36.6 c-19.43,0.12-24.78-13.66-19.15-24.64s19.57-16.33,19.57-16.33l53.26-20.74L108.9,29.64z" fill="#F2A764"/>
  <path d="M92.85,19.65c0,0-23.37,6.19-40.69,21.82S26.41,67.65,35.27,76.38s27.02,5.22,40.12-5.07 c17.03-13.37,24.25-26.69,27.17-32.94c2.96-6.34,3.14-8.96,3.14-8.96s-5.49,0.23-9.48-3.89C93.36,22.54,92.85,19.65,92.85,19.65z" fill="#FFD2B1"/>
  <ellipse cx="72.76" cy="38.25" fill="#E1E2E1" rx="15.42" ry="15.25"/>
  <path d="M72.65,50.41c6.9,0.14,12.74-5.35,12.18-12.6s-12.74,0.99-14.5,1.55c-1.76,0.56-10.14-3.38-9.5,1.06 C61.46,44.85,64.84,50.25,72.65,50.41z" fill="#F1F2F2"/>
  <path d="M61.81,32.81c-0.21,0.42-0.65,1.57-0.92,3.38c-0.28,1.9-0.07,3.73-0.07,3.73s4.83,3.36,12.25,2.96 c7.81-0.42,11.54-5.49,11.54-5.49s0-1.69-0.77-3.94c-0.77-2.25-2.04-3.1-2.04-3.1s-3.59,5.42-10.14,5.49 C66.09,35.9,61.81,32.81,61.81,32.81z" fill="#CCCCCC"/>
  <path d="M70.47,26.48c-4.58,0.63-7.39,3.8-7.11,4.86c0.28,1.06,4.65,2.96,9.01,2.18 c4.65-0.82,6.76-3.59,6.69-4.5C78.99,28.09,75.88,25.73,70.47,26.48z" fill="#FFFFFF"/>
</svg>

<svg viewBox="0 0 128 128" xmlns="http://www.w3.org/2000/svg">
  <defs/>
  <path d="M119.32,9.32 C109.43,-2.48 75.77,12.89 68.45,16.45 C61.13,20.01 45.36,28.09 40.11,32.41 C36.11,35.7 34.1,39.92 31.48,41.42 C28.86,42.92 24.35,44.61 21.53,47.05 C18.71,49.49 19.09,53.43 16.65,55.87 C14.21,58.31 2.73,63.38 3.89,77.27 C4.83,88.53 13.09,89.28 15.9,94.35 C18.71,99.42 19.84,110.68 28.66,116.5 C37.02,122.01 44.24,119.13 52.12,119.5 C60,119.87 59.07,124.38 65.45,123.82 C73.17,123.14 80.65,114.43 82.34,113.87 C84.03,113.31 89.49,115.22 93.04,113.12 C102.24,107.68 102.05,100.54 104.3,94.54 C106.55,88.53 114.06,87.22 115.37,80.27 C116.68,73.32 114.43,62.81 115.75,55.68 C117.07,48.55 130.02,22.09 119.32,9.32 Z" fill="#87716B"/>
  <path d="M27.16,51.75 C27.16,51.75 20.4,56.07 17.21,59.45 C14.02,62.83 6.7,67.71 8.01,76.34 C9.32,84.97 18.15,87.04 21.15,93.23 C24.15,99.42 25.65,112.56 35.79,115.38 C45.93,118.2 43.96,107.68 51.18,107.87 C60.19,108.1 57.37,120.07 65.82,119.7 C74.27,119.33 74.08,109.38 80.09,108.81 C86.1,108.25 88.24,112.04 93.04,108.62 C100.17,103.55 97.66,95.04 99.75,91.3 C102.61,86.19 95.67,60.56 95.67,60.56 L52.17,43.15 L27.16,51.75 Z" fill="#9EA5A6"/>
  <path d="M64.51,37.29 C64.51,37.29 31.66,41.42 24.9,50.24 C18.14,59.06 10.63,68.76 11.95,76.71 C13.64,86.85 20.58,85.91 24.9,91.91 C29.22,97.91 31.85,109.55 38.41,110.87 C44.98,112.18 44.98,103.36 52.3,103.36 C59.62,103.36 60.18,115.37 65.81,115.19 C71.44,115.01 72.38,108.81 77.26,106.18 C82.14,103.55 87.02,109.75 92.46,105.05 C97.9,100.36 96.24,94.39 98.89,90.32 C102.55,84.69 98.47,50.2 98.47,50.2 L78.02,33.16 L64.51,37.29 Z" fill="#CCCCCC"/>
  <path d="M49.49,48.93 C49.49,48.93 44.05,49.68 40.48,50.24 C36.91,50.8 31.66,51.93 27.72,55.68 C23.78,59.43 18.15,68.26 18.33,69.38 C18.51,70.5 35.79,72.95 35.79,72.95 L49.49,48.93 Z" fill="#F3F1F6"/>
  <path d="M16.69,79.06 C16.69,79.06 26.4,79.06 27.25,79.76 C28.09,80.46 30.49,85.51 34.01,89.33 C38.8,94.54 45.41,96.09 45.55,97.07 C45.69,98.06 41.75,107.35 39.21,106.78 C36.67,106.21 35.27,100.02 29.21,92.7 C23.17,85.39 18.66,84.69 16.69,79.06 Z" fill="#F3F1F6"/>
  <path d="M57.8,97.92 C57.31,98.2 58.43,102 59.77,106.23 C60.34,108.03 63.57,113.06 66.81,111.72 C69.34,110.67 69.27,106.65 68.78,103.13 C68.18,98.86 67.02,95.11 66.53,95.32 C65.73,95.66 64.35,96.09 62.1,96.8 C60.03,97.44 58.48,97.53 57.8,97.92 Z" fill="#F3F1F6"/>
  <path d="M72.72,91.02 C72.29,91.36 77.23,97.22 78.14,98.41 C79.48,100.17 81.1,102 84.62,102.14 C88.14,102.28 90.74,101.15 90.74,99.89 C90.74,98.62 87.18,94.97 84.4,90.74 C83.58,89.49 80.18,84.76 79.9,84.76 C79.62,84.76 78.1,86.68 76.87,87.72 C74.55,89.69 73.36,90.53 72.72,91.02 Z" fill="#F3F1F6"/>
  <path d="M86.38,78.63 C85.8,79.47 98.49,87.22 99.75,87.08 C100.37,87.01 100.41,80.46 100.31,73.99 C100.24,69.27 99.76,60.6 99.61,61.53 C99.47,62.37 96.65,67.09 93.77,70.68 C90.75,74.43 87.01,77.72 86.38,78.63 Z" fill="#F3F1F6"/>
  <path d="M108.9,29.64 C108.9,29.64 107.91,44.14 100.45,54.42 C92.99,64.7 73.28,90.88 50.33,91.02 C30.9,91.14 25.55,77.36 31.18,66.38 C36.81,55.4 50.75,50.05 50.75,50.05 L104.01,29.31 L108.9,29.64 Z" fill="#F2A764"/>
  <path d="M92.85,19.65 C92.85,19.65 69.48,25.84 52.16,41.47 C34.84,57.1 26.41,67.65 35.27,76.38 C44.13,85.11 62.29,81.6 75.39,71.31 C92.42,57.94 99.64,44.62 102.56,38.37 C105.52,32.03 105.7,29.41 105.7,29.41 C105.7,29.41 100.21,29.64 96.22,25.52 C93.36,22.54 92.85,19.65 92.85,19.65 Z" fill="#FFD2B1"/>
  <path d="M88.18,38.25 A15.42 15.25 0 1 1 57.34,38.25 A15.42 15.25 0 1 1 88.18,38.25 Z" fill="#E1E2E1"/>
  <path d="M72.65,50.41 C79.55,50.55 85.39,45.06 84.83,37.81 C84.27,30.56 72.09,38.8 70.33,39.36 C68.57,39.92 60.19,35.98 60.83,40.42 C61.46,44.85 64.84,50.25 72.65,50.41 Z" fill="#F1F2F2"/>
  <path d="M61.81,32.81 C61.6,33.23 61.16,34.38 60.89,36.19 C60.61,38.09 60.82,39.92 60.82,39.92 C60.82,39.92 65.65,43.28 73.07,42.88 C80.88,42.46 84.61,37.39 84.61,37.39 C84.61,37.39 84.61,35.7 83.84,33.45 C83.07,31.2 81.8,30.35 81.8,30.35 C81.8,30.35 78.21,35.77 71.66,35.84 C66.09,35.9 61.81,32.81 61.81,32.81 Z" fill="#CCCCCC"/>
  <path d="M70.47,26.48 C65.89,27.11 63.08,30.28 63.36,31.34 C63.64,32.4 68.01,34.3 72.37,33.52 C77.02,32.7 79.13,29.93 79.06,29.02 C78.99,28.09 75.88,25.73 70.47,26.48 Z" fill="#FFFFFF"/>
</svg>
